openmetadata-ui/src/main/resources/ui/src/assets/svg/complete.svg

<svg xmlns="http://www.w3.org/2000/svg" viewBox="0 0 360 360" fill="none"><path fill="#004AB3FF" d="M259.568 122.885c5.494 5.493 5.494 14.397 0 19.888l-94.339 94.342c-5.493 5.491-14.395 5.491-19.888 0l-44.909-44.912c-5.494-5.49-5.494-14.395 0-19.885 5.49-5.493 14.394-5.493 19.885 0l34.967 34.967 84.396-84.4c5.494-5.491 14.398-5.491 19.888 0ZM360 180c0 99.495-80.519 180-180 180C80.505 360 0 279.481 0 180 0 80.505 80.519 0 180 0c99.495 0 180 80.519 180 180Zm-28.125 0c0-83.95-67.937-151.875-151.875-151.875C96.05 28.125 28.125 96.062 28.125 180c0 83.949 67.937 151.875 151.875 151.875 83.949 0 151.875-67.937 151.875-151.875Z"/></svg>

<svg width="360" height="360" viewBox="0 0 360 360" fill="none" xmlns="http://www.w3.org/2000/svg">
<path d="M259.568 122.885C265.062 128.378 265.062 137.282 259.568 142.773L165.229 237.115C159.736 242.606 150.834 242.606 145.341 237.115L100.432 192.203C94.9384 186.713 94.9384 177.808 100.432 172.318C105.922 166.825 114.826 166.825 120.317 172.318L155.284 207.285L239.68 122.885C245.174 117.394 254.078 117.394 259.568 122.885V122.885ZM360 180C360 279.495 279.481 360 180 360C80.5051 360 0 279.481 0 180C0 80.5051 80.5188 0 180 0C279.495 0 360 80.5188 360 180ZM331.875 180C331.875 96.0507 263.938 28.125 180 28.125C96.0507 28.125 28.125 96.0617 28.125 180C28.125 263.949 96.0617 331.875 180 331.875C263.949 331.875 331.875 263.938 331.875 180Z" fill="#1e61f0"/>
</svg>
